!!!OTL: 527c. Verstiegen.
!!!ARE: Europa, Mitteleuropa, Deutschland, Siebengebirge; Hessen, Darmstadt
!!!SCT: E0527B
!!!TXL: @@DE
!!!YEM: Copyright 1995, estate of Helmut Schaffrath.
**kern	**text
*ICvox	*
*M2/4	*
*k[b-]	*
*F:	*
!LO:TX:a:t=Mäßig bewegt.	!
!LO:TX:a:t=Aus dem Siebengebirge 1860 und Heſſen-Darmſtädtiſchen 1847.	!
{8c	Des
=1	=1
8.f	A-
16g	-bends
8a	wenn
8b-	ich
=2	=2
8.cc	ſchla-
16dd	-fen
8cc}	geh,
{8a	da
=3	=3
8b-	kommt
8a	mein
8b-	Schatʒ
8cc	ʒu
=4	=4
4a	mir.
8r}	.
{8cc	Mit
=5	=5
8.cc	ei-
16a	-nem
8b-	klei-
8g	-nen
=6	=6
8.a	Rie-
16b-/	-ge-
8a}	-lein,
{8f	ver-
=7	=7
8.g	-rie-
16a	-gelt
8b-/	iſt
8g	die
=8	=8
8aL	Thür.
8dd	.
8ccJ}	.
{8cc	Mit
=9	=9
8.cc	ei-
16a	-nem
8b-	klei-
8g	-nen
=10	=10
8.a	Rie-
16b-/	-ge-
8a}	-lein,
{8f	ver-
=11	=11
8.g	-rie-
16a	-gelt
8b-/	iſt
8g	die
=12	=12
4f	Thür.
8r}	.
==	==
!!!AGN: Liebes - Lied
!!!ONB: ESAC (Essen Associative Code) Database: ERK1
!!!AMT: simple duple
!!!AIN: vox
!!!EED: Helmut Schaffrath
!!!EEV: 1.0
!!!GTL: Liebeslieder [Neuere (aus dem 18. bis 19. Jahrh.) - Liebeslust]
!!!URL-scan: https://rosdok.uni-rostock.de/mcrviewer/recordIdentifier/rosdok_ppn745177662/iview2/phys_0355.iview2?x=-495.639162561577&y=93.9685500038322&scale=0.46294184720638526&rotation=0&layout=singlePageLayout
!!!ENC: Anna Maria Matuszewska
!!!EEV: 2024/10/12
*-	*-
